assets/logos/bedrock.svg

<svg class="typst-doc" viewBox="0 0 81.30645669291339 102.42645669291339" width="81.30645669291339pt" height="102.42645669291339pt" xmlns="http://www.w3.org/2000/svg" xmlns:xlink="http://www.w3.org/1999/xlink" xmlns:h5="http://www.w3.org/1999/xhtml">
    <path class="typst-shape" fill="#ffffff" fill-rule="nonzero" d="M 0 0v 102.42646 h 81.30646 v -102.42646 Z "/>
    <g>
        <g class="typst-group" transform="matrix(1 0 0 1 14.173228346456693 14.173228346456693)">
            <g>
                <path class="typst-shape" fill="#000000" fill-rule="nonzero" d="M 0 0m 0 5 c 0 -2.7614238 2.2385762 -5 5 -5 h 42.96 c 2.761425 0 5 2.2385762 5 5 v 64.08 c 0 2.7614212 -2.238575 5 -5 5 h -42.96 c -2.7614238 0 -5 -2.2385788 -5 -5 Z "/>
                <g class="typst-group" transform="matrix(1 0 0 1 8 19.616)">
                    <g/>
                </g>
                <g class="typst-group" transform="matrix(1 0 0 1 8 19.616)">
                    <g/>
                </g>
                <g class="typst-group" transform="matrix(1 0 0 1 8 8)">
                    <g>
                        <g class="typst-text" transform="matrix(1 0 0 -1 0 8.976000000000003)">
                            <use xlink:href="#g363496F2D5142F8F4982DAF4CE1D3779" x="5.28" y="0" fill="#ffffff" fill-rule="nonzero"/>
                        </g>
                    </g>
                </g>
                <g class="typst-group" transform="matrix(1 0 0 1 44.96 8)">
                    <g/>
                </g>
                <g class="typst-group" transform="matrix(1 0 0 1 8 31.232000000000003)">
                    <g/>
                </g>
                <g class="typst-group" transform="matrix(1 0 0 1 8 31.232000000000003)">
                    <g/>
                </g>
                <g class="typst-group" transform="matrix(1 0 0 1 8 31.232000000000003)">
                    <g/>
                </g>
                <g class="typst-group" transform="matrix(1 0 0 1 8 19.616)">
                    <g>
                        <g class="typst-text" transform="matrix(1 0 0 -1 0 8.976000000000003)">
                            <use xlink:href="#g553CA0615203AE7EF2B51E16776E3FE0" x="0" y="0" fill="#ffffff" fill-rule="nonzero"/>
                            <use xlink:href="#g553CA0615203AE7EF2B51E16776E3FE0" x="10.56" y="0" fill="#ffffff" fill-rule="nonzero"/>
                            <use xlink:href="#gB3CB5C71C376FEAC35A5CE3E9D70B056" x="15.84" y="0" fill="#ffffff" fill-rule="nonzero"/>
                            <use xlink:href="#gB3CB5C71C376FEAC35A5CE3E9D70B056" x="21.12" y="0" fill="#ffffff" fill-rule="nonzero"/>
                            <use xlink:href="#gB3CB5C71C376FEAC35A5CE3E9D70B056" x="26.400000000000002" y="0" fill="#ffffff" fill-rule="nonzero"/>
                        </g>
                    </g>
                </g>
                <g class="typst-group" transform="matrix(1 0 0 1 44.96 19.616)">
                    <g/>
                </g>
                <g class="typst-group" transform="matrix(1 0 0 1 8 42.848000000000006)">
                    <g/>
                </g>
                <g class="typst-group" transform="matrix(1 0 0 1 8 42.848000000000006)">
                    <g/>
                </g>
                <g class="typst-group" transform="matrix(1 0 0 1 8 42.848000000000006)">
                    <g/>
                </g>
                <g class="typst-group" transform="matrix(1 0 0 1 8 31.232000000000003)">
                    <g>
                        <g class="typst-text" transform="matrix(1 0 0 -1 0 8.976000000000003)">
                            <use xlink:href="#g553CA0615203AE7EF2B51E16776E3FE0" x="5.28" y="0" fill="#ffffff" fill-rule="nonzero"/>
                            <use xlink:href="#gB3CB5C71C376FEAC35A5CE3E9D70B056" x="21.12" y="0" fill="#ffffff" fill-rule="nonzero"/>
                            <use xlink:href="#g553CA0615203AE7EF2B51E16776E3FE0" x="31.680000000000003" y="0" fill="#ffffff" fill-rule="nonzero"/>
                        </g>
                    </g>
                </g>
                <g class="typst-group" transform="matrix(1 0 0 1 44.96 31.232000000000003)">
                    <g/>
                </g>
                <g class="typst-group" transform="matrix(1 0 0 1 8 54.464000000000006)">
                    <g/>
                </g>
                <g class="typst-group" transform="matrix(1 0 0 1 8 54.464000000000006)">
                    <g/>
                </g>
                <g class="typst-group" transform="matrix(1 0 0 1 8 54.464000000000006)">
                    <g/>
                </g>
                <g class="typst-group" transform="matrix(1 0 0 1 8 42.848000000000006)">
                    <g>
                        <g class="typst-text" transform="matrix(1 0 0 -1 0 8.976000000000003)">
                            <use xlink:href="#g553CA0615203AE7EF2B51E16776E3FE0" x="10.56" y="0" fill="#ffffff" fill-rule="nonzero"/>
                            <use xlink:href="#gB3CB5C71C376FEAC35A5CE3E9D70B056" x="15.84" y="0" fill="#ffffff" fill-rule="nonzero"/>
                            <use xlink:href="#gB3CB5C71C376FEAC35A5CE3E9D70B056" x="21.12" y="0" fill="#ffffff" fill-rule="nonzero"/>
                            <use xlink:href="#gB3CB5C71C376FEAC35A5CE3E9D70B056" x="26.400000000000002" y="0" fill="#ffffff" fill-rule="nonzero"/>
                            <use xlink:href="#g4EE50823DE1072B888352BF5ED93E90B" x="31.680000000000003" y="0" fill="#ffffff" fill-rule="nonzero"/>
                        </g>
                    </g>
                </g>
                <g class="typst-group" transform="matrix(1 0 0 1 44.96 42.848000000000006)">
                    <g/>
                </g>
                <g class="typst-group" transform="matrix(1 0 0 1 8 54.464000000000006)">
                    <g/>
                </g>
                <g class="typst-group" transform="matrix(1 0 0 1 8 66.08)">
                    <g/>
                </g>
            </g>
        </g>
    </g>
    <defs id="glyph">
        <symbol id="g363496F2D5142F8F4982DAF4CE1D3779" overflow="visible">
            <path d="M 0 0m -4.752 -1.2144 v 0.9944 h 9.504 v -0.9944 h -9.504 Z "/>
        </symbol>
        <symbol id="g553CA0615203AE7EF2B51E16776E3FE0" overflow="visible">
            <path d="M 0 0m 3.5992 -0.968 l -3.0712 8.272 h 1.1439999 l 3.0712 -8.272 h -1.1439998 Z "/>
        </symbol>
        <symbol id="gB3CB5C71C376FEAC35A5CE3E9D70B056" overflow="visible">
            <path d="M 0 0m 0.528 -1.2144 v 0.9944 h 4.224 v -0.9944 h -4.224 Z "/>
        </symbol>
        <symbol id="g4EE50823DE1072B888352BF5ED93E90B" overflow="visible">
            <path d="M 0 0m 0.528 -0.968 l 3.08 8.272 h 1.1439998 l -3.08 -8.272 h -1.1439999 Z "/>
        </symbol>
    </defs>
</svg>

<svg class="typst-doc" viewBox="0 0 81.3065 102.4265" width="81.3065" height="102.4265" xmlns="http://www.w3.org/2000/svg" xmlns:xlink="http://www.w3.org/1999/xlink" xmlns:h5="http://www.w3.org/1999/xhtml">
    <g>
        <g transform="translate(14.17325 14.17325)">
            <g class="typst-group">
                <g>
                    <g transform="translate(-0 -0)">
                        <path class="typst-shape" fill="#000000" d="M 0 5 C 0 2.2385762 2.2385762 0 5 0 L 47.96 0 C 50.721424 0 52.96 2.2385762 52.96 5 L 52.96 69.08 C 52.96 71.84142 50.721424 74.08 47.96 74.08 L 5 74.08 C 2.2385762 74.08 0 71.84142 0 69.08 Z "/>
                    </g>
                    <g transform="translate(8 19.616)">
                        <g class="typst-group">
                            <g/>
                        </g>
                    </g>
                    <g transform="translate(8 19.616)">
                        <g class="typst-group">
                            <g/>
                        </g>
                    </g>
                    <g transform="translate(8 8)">
                        <g class="typst-group">
                            <g>
                                <g transform="translate(0 8.976)">
                                    <g class="typst-text" transform="scale(1, -1)">
                                        <use xlink:href="#gC6C8A06ACA3F2258CFC932E1F8DC0306" x="5.28" fill="#ffffff"/>
                                    </g>
                                </g>
                            </g>
                        </g>
                    </g>
                    <g transform="translate(44.96000000000001 8)">
                        <g class="typst-group">
                            <g/>
                        </g>
                    </g>
                    <g transform="translate(8 31.232000000000003)">
                        <g class="typst-group">
                            <g/>
                        </g>
                    </g>
                    <g transform="translate(8 31.232000000000003)">
                        <g class="typst-group">
                            <g/>
                        </g>
                    </g>
                    <g transform="translate(8 31.232000000000003)">
                        <g class="typst-group">
                            <g/>
                        </g>
                    </g>
                    <g transform="translate(8 19.616)">
                        <g class="typst-group">
                            <g>
                                <g transform="translate(0 8.976)">
                                    <g class="typst-text" transform="scale(1, -1)">
                                        <use xlink:href="#g40C668FB4E37D9F21E1980C2683B7C07" x="0" fill="#ffffff"/>
                                        <use xlink:href="#g40C668FB4E37D9F21E1980C2683B7C07" x="10.56" fill="#ffffff"/>
                                        <use xlink:href="#g45C544E5050795A0DB9B642A0F86EEF6" x="15.84" fill="#ffffff"/>
                                        <use xlink:href="#g45C544E5050795A0DB9B642A0F86EEF6" x="21.12" fill="#ffffff"/>
                                        <use xlink:href="#g45C544E5050795A0DB9B642A0F86EEF6" x="26.400000000000002" fill="#ffffff"/>
                                    </g>
                                </g>
                            </g>
                        </g>
                    </g>
                    <g transform="translate(44.96000000000001 19.616)">
                        <g class="typst-group">
                            <g/>
                        </g>
                    </g>
                    <g transform="translate(8 42.848000000000006)">
                        <g class="typst-group">
                            <g/>
                        </g>
                    </g>
                    <g transform="translate(8 42.848000000000006)">
                        <g class="typst-group">
                            <g/>
                        </g>
                    </g>
                    <g transform="translate(8 42.848000000000006)">
                        <g class="typst-group">
                            <g/>
                        </g>
                    </g>
                    <g transform="translate(8 31.232000000000003)">
                        <g class="typst-group">
                            <g>
                                <g transform="translate(0 8.976)">
                                    <g class="typst-text" transform="scale(1, -1)">
                                        <use xlink:href="#g40C668FB4E37D9F21E1980C2683B7C07" x="5.28" fill="#ffffff"/>
                                        <use xlink:href="#g45C544E5050795A0DB9B642A0F86EEF6" x="21.12" fill="#ffffff"/>
                                        <use xlink:href="#g40C668FB4E37D9F21E1980C2683B7C07" x="31.680000000000003" fill="#ffffff"/>
                                    </g>
                                </g>
                            </g>
                        </g>
                    </g>
                    <g transform="translate(44.96000000000001 31.232000000000003)">
                        <g class="typst-group">
                            <g/>
                        </g>
                    </g>
                    <g transform="translate(8 54.464000000000006)">
                        <g class="typst-group">
                            <g/>
                        </g>
                    </g>
                    <g transform="translate(8 54.464000000000006)">
                        <g class="typst-group">
                            <g/>
                        </g>
                    </g>
                    <g transform="translate(8 54.464000000000006)">
                        <g class="typst-group">
                            <g/>
                        </g>
                    </g>
                    <g transform="translate(8 42.848000000000006)">
                        <g class="typst-group">
                            <g>
                                <g transform="translate(0 8.976)">
                                    <g class="typst-text" transform="scale(1, -1)">
                                        <use xlink:href="#g40C668FB4E37D9F21E1980C2683B7C07" x="10.56" fill="#ffffff"/>
                                        <use xlink:href="#g45C544E5050795A0DB9B642A0F86EEF6" x="15.84" fill="#ffffff"/>
                                        <use xlink:href="#g45C544E5050795A0DB9B642A0F86EEF6" x="21.12" fill="#ffffff"/>
                                        <use xlink:href="#g45C544E5050795A0DB9B642A0F86EEF6" x="26.400000000000002" fill="#ffffff"/>
                                        <use xlink:href="#gEA462781DB655E9FC41D13FE877043C1" x="31.680000000000003" fill="#ffffff"/>
                                    </g>
                                </g>
                            </g>
                        </g>
                    </g>
                    <g transform="translate(44.96000000000001 42.848000000000006)">
                        <g class="typst-group">
                            <g/>
                        </g>
                    </g>
                    <g transform="translate(8 54.464000000000006)">
                        <g class="typst-group">
                            <g/>
                        </g>
                    </g>
                    <g transform="translate(8 66.08000000000001)">
                        <g class="typst-group">
                            <g/>
                        </g>
                    </g>
                </g>
            </g>
        </g>
    </g>
    <defs id="glyph">
        <symbol id="gC6C8A06ACA3F2258CFC932E1F8DC0306" overflow="visible">
            <path d="M -4.752 -1.2144 L -4.752 -0.22 L 4.752 -0.22 L 4.752 -1.2144 L -4.752 -1.2144 Z "/>
        </symbol>
        <symbol id="g40C668FB4E37D9F21E1980C2683B7C07" overflow="visible">
            <path d="M 3.5992 -0.968 L 0.528 7.304 L 1.6719999 7.304 L 4.7432 -0.968 L 3.5992 -0.968 Z "/>
        </symbol>
        <symbol id="g45C544E5050795A0DB9B642A0F86EEF6" overflow="visible">
            <path d="M 0.528 -1.2144 L 0.528 -0.22 L 4.752 -0.22 L 4.752 -1.2144 L 0.528 -1.2144 Z "/>
        </symbol>
        <symbol id="gEA462781DB655E9FC41D13FE877043C1" overflow="visible">
            <path d="M 0.528 -0.968 L 3.608 7.304 L 4.752 7.304 L 1.6719999 -0.968 L 0.528 -0.968 Z "/>
        </symbol>
    </defs>
</svg>
